X:1
T:Musical Offering Canon a 2 per Augmetationem, contrario Motu (A = 415 Hz)
T:BWV 1079
T:J. S. Bach
%%score 1 { 2 | 3 }
L:1/8
Q:1/4=72
M:4/4
K:D
V:1 treble nm="Harp"
V:2 alto nm="Harp"
V:3 tenor 
V:1
"^Adagio" z4 z F/E/ D2- | DC B,6 | z/ C/D/E/ F3 ^G ^A2- | AB c2- c/f/e/d/ c2- | c^A B4 z2 | %5
 z4 z ^D E2- | EF E3 A G2- | GF G3 B A2- | AG F3 B F2- | F^G ^A3 d A2- | AB c6 | %11
 z/ B/c/d/ c3 B/^A/ e2- | e^d/c/ B6- | B/4A/4G/4F/4E/4D/4C/4B,/4 ^A,2- A,/B,/C/D/ C2- | %14
 CG F2- F/f/e/d/ c2- | c3 e dcB^A | Bc d3 F/E/ D2- | DC B,6 | z/ C/D/E/ F3 ^G ^A2- | %19
 AB c2- c/f/e/d/ c2- | c^A B4 z2 | z4 z ^D E2- | EF E3 A G2- | GF G3 B A2- | AG F3 B F2- | %25
 F^G ^A3 d A2- | AB c6 | z/ B/c/d/ c3 B/^A/ e2- | e^d/c/ B6- | %29
 B/4A/4G/4F/4E/4D/4C/4B,/4 ^A,2- A,/B,/C/D/ C2- | CG F2- F/f/e/d/ c2- | c3 e dcB^A | %32
 Bc d3 F/E/ D2- | DC B,6 | z/ C/D/E/ F3 ^G ^A2- | AB c3 e/d/ c2- | c^A B4 z2 |] %37
V:2
 B,2- B,/^A,/B,/C/ D3 E | F2- F/D/E/F/ G3 z/ B,/ | ^A,2- A,/F,/A,/C/ F3 z/ ^G/ | %3
 F/4^E/4F/4E/4F/4E/4F/4E/4 F/4E/4F/4E/4 z/ ^D/ =E3 z/ F/ | ^D3 z/ C/ =D4- | %5
 DC C>=C D/4C/4D/4C/4D/4C/4B,/ C/4B,/4C/4B,/4C/4B,/4^A,/ | %6
 B,/4^A,/4B,/4A,/4B,/4A,/4B,/4A,/4 B,/4A,/4B,/4A,/4 ^G,/F,/ B,3 z/ E/ | %7
 D2- D/C/B,/C/ D/4C/4D/4C/4D/4C/4D/4C/4 D/4C/4D/4C/4B, | B,2- B,/^A,/B,/C/ D3 E | %9
 F2- F/D/E/F/ G3 z/ B,/ | ^A,2- A,/F,/A,/C/ F3 z/ ^G/ | %11
 F/4^E/4F/4E/4F/4E/4F/4E/4 F/4E/4F/4E/4 z/ ^D/ =E3 z/ F/ | %12
 E/4^D/4E/4D/4E/4D/4E/4D/4 E/4D/4E/4D/4 z/ C/ =D4- | %13
 DC C>=C D/4C/4D/4C/4D/4C/4B,/ C/4B,/4C/4B,/4C/4B,/4^A,/ | %14
 B,/4^A,/4B,/4A,/4B,/4A,/4B,/4A,/4 B,/4A,/4B,/4A,/4 ^G,/F,/ B,3 z/ E/ | %15
 D2- D/C/B,/C/ D/4C/4D/4C/4D/4C/4D/4C/4 D/4C/4D/4C/4B, | B,2- B,/^A,/B,/C/ D3 E | %17
 F2- F/D/E/F/ G2- G z/ B,/ | ^A,2- A,/F,/A,/C/ F3 z/ ^G/ | %19
 F/4^E/4F/4E/4F/4E/4F/4E/4 F/4E/4F/4E/4 z/ ^D/ =E3 z/ F/ | %20
 E/4^D/4E/4D/4E/4D/4E/4D/4 E/4D/4E/4D/4 z/ C/ =D4- | %21
 DC C>=C D/4C/4D/4C/4D/4C/4B,/ C/4B,/4C/4B,/4C/4B,/4^A,/ | %22
 B,/4^A,/4B,/4A,/4B,/4A,/4B,/4A,/4 B,/4A,/4B,/4A,/4 ^G,/F,/ B,3 z/ E/ | %23
 D2- D/C/B,/C/ D/4C/4D/4C/4D/4C/4D/4C/4 D/4C/4D/4C/4 B, | B,2- B,/^A,/B,/C/ D3 E | %25
 F2- F/D/E/F/ G3 z/ B,/ | ^A,2- A,/F,/A,/C/ F3 z/ ^G/ | %27
 F/4^E/4F/4E/4F/4E/4F/4E/4 F/4E/4F/4E/4 z/ ^D/ =E3 z/ F/ | ^D3 z/ C/ =D4- | %29
 DC C>=C D/4C/4D/4C/4D/4C/4B,/ C/4B,/4C/4B,/4C/4B,/4^A,/ | %30
 B,/4^A,/4B,/4A,/4B,/4A,/4B,/4A,/4 B,/4A,/4B,/4A,/4 ^G,/F,/ B,3 z/ E/ | %31
 D2- D/C/B,/C/ D/4C/4D/4C/4D/4C/4D/4C/4 D/4C/4D/4C/4B, | B,2- B,/^A,/B,/C/ D3 E | %33
 F2- F/D/E/F/ G3 z/ B,/ | ^A,2- A,/F,/A,/C/ F3 z/ ^G/ | %35
 F/4^E/4F/4E/4F/4E/4F/4E/4 F/4E/4F/4E/4 z/ ^D/ =E3 z/ F/ | ^D6 z2 |] %37
V:3
 z z/ B,/4C/4 D>E F3 z/4 E/4D/4C/4 | B,>A, G,>F, E,-E,/4B,,/4C,/4^D,/4 E,>G, | %2
 F,2 z2 z z/ D/ C>B, | C>^G, ^A,>B, A,>F, G,>A, | B,>F, B,>A, G,>D, G,>F, | %5
 E,3 z/4 F,/4E,/4^D,/4 E,3/2F,/4G,/4 C,3/2=D,/4E,/4 | %6
 F,3- F,/8^G,/8^A,/8B,/8C/8D/8E/8F/8 G-G/4F/4E/4^D/4 E>A, | %7
 B,-B,/4B,,/4C,/4D,/4 E,2- E,/C,/D,/E,/ F,/G,/F,/E,/ | D,3/2B,/4C/4 D>E F3 z/4 E/4D/4C/4 | %9
 B,>A, G,>F, E,-E,/4B,,/4C,/4^D,/4 E,>G, | F,2 z2 z z/ D/ C>B, | C>^G, ^A,>B, A,>F, G,>A, | %12
 B,>F, B,>A, G,>D, G,>F, | E,2- E, z/4 F,/4E,/4^D,/4 E,3/2F,/4G,/4 C,3/2=D,/4E,/4 | %14
 F,3- F,/8^G,/8^A,/8B,/8C/8D/8E/8F/8 G-G/4F/4E/4^D/4 E>A, | %15
 B,-B,/4B,,/4C,/4D,/4 E,2- E,/C,/D,/E,/ F,/G,/F,/E,/ | D,3/2B,/4C/4 D>E F3 z/4 E/4D/4C/4 | %17
 B,>A, G,>F, E,-E,/4B,,/4C,/4^D,/4 E,>G, | F,2 z2 z z/ D/ C>B, | C>^G, ^A,>B, A,>F, G,>A, | %20
 B,>F, B,>A, G,>D, G,>F, | E,3 z/4 F,/4E,/4^D,/4 E,3/2F,/4G,/4 C,3/2=D,/4E,/4 | %22
 F,3- F,/8^G,/8^A,/8B,/8C/8D/8E/8F/8 G-G/4F/4E/4^D/4 E>A, | %23
 B,-B,/4B,,/4C,/4D,/4 E,2- E,/C,/D,/E,/ F,/G,/F,/E,/ | z z/ B,/4C/4 D>E F3 z/4 E/4D/4C/4 | %25
 B,>A, G,>F, E,-E,/4B,,/4C,/4^D,/4 E,>G, | F,2 z2 z z/ D/ C>B, | C>^G, ^A,>B, A,>F, G,>A, | %28
 B,>F, B,>A, G,>D, G,>F, | E,3 z/4 F,/4E,/4^D,/4 E,3/2F,/4G,/4 C,3/2=D,/4E,/4 | %30
 F,3- F,/8^G,/8^A,/8B,/8C/8D/8E/8F/8 G-G/4F/4E/4^D/4 E>A, | %31
 B,-B,/4B,,/4C,/4D,/4 E,2- E,/C,/D,/E,/ F,/G,/F,/E,/ | z z/ B,/4C/4 D>E F3 z/4 E/4D/4C/4 | %33
 B,>A, G,>F, E,-E,/4B,,/4C,/4^D,/4 E,>G, | F,2 z2 z z/ D/ C>B, | C>^G, ^A,>B, A,>F, G,>A, | %36
 B,6 z2 |] %37

